icon/ir/grid-add.svg

<svg stroke-width="1.5" viewBox="0 0 24 24" fill="none" xmlns="http://www.w3.org/2000/svg" height="1em" width="1em">
  <path d="M13.9922 17H16.9922M19.9922 17H16.9922M16.9922 17V14M16.9922 17V20" stroke="currentColor" stroke-linecap="round" stroke-linejoin="round"/>
  <path d="M4 9.4V4.6C4 4.26863 4.26863 4 4.6 4H9.4C9.73137 4 10 4.26863 10 4.6V9.4C10 9.73137 9.73137 10 9.4 10H4.6C4.26863 10 4 9.73137 4 9.4Z" stroke="currentColor" stroke-width="1.5"/>
  <path d="M4 19.4V14.6C4 14.2686 4.26863 14 4.6 14H9.4C9.73137 14 10 14.2686 10 14.6V19.4C10 19.7314 9.73137 20 9.4 20H4.6C4.26863 20 4 19.7314 4 19.4Z" stroke="currentColor" stroke-width="1.5"/>
  <path d="M14 9.4V4.6C14 4.26863 14.2686 4 14.6 4H19.4C19.7314 4 20 4.26863 20 4.6V9.4C20 9.73137 19.7314 10 19.4 10H14.6C14.2686 10 14 9.73137 14 9.4Z" stroke="currentColor" stroke-width="1.5"/>
</svg>

<svg width="24" height="24" stroke-width="1.5" fill="none" xmlns="http://www.w3.org/2000/svg"><path d="M13.992 17h3m3 0h-3m0 0v-3m0 3v3" stroke="currentColor" stroke-linecap="round" stroke-linejoin="round"/><path d="M4 9.4V4.6a.6.6 0 0 1 .6-.6h4.8a.6.6 0 0 1 .6.6v4.8a.6.6 0 0 1-.6.6H4.6a.6.6 0 0 1-.6-.6ZM4 19.4v-4.8a.6.6 0 0 1 .6-.6h4.8a.6.6 0 0 1 .6.6v4.8a.6.6 0 0 1-.6.6H4.6a.6.6 0 0 1-.6-.6ZM14 9.4V4.6a.6.6 0 0 1 .6-.6h4.8a.6.6 0 0 1 .6.6v4.8a.6.6 0 0 1-.6.6h-4.8a.6.6 0 0 1-.6-.6Z" stroke="currentColor"/></svg>
